X: 63
T:Half Hannikin
M:6/8
L:1/8
Q:160
S:Playford
O:Manuscript
A:English
K:G
B>cd d2 c|B>cB A2 G|B>cd d>cB|A>GF G3|B>cd d2 c|B>cB A2 G|B>cd d>cB|A>GF G3:|
|: B3 c3| B3 A2 G| B>AB| c2 B|A>GF G3|B3 c3| B3 A2 G| B>AB| c2 B|A>GF G3:|

